Hatter-kde-dark/actions/22/draw-freehand.svg

<svg xmlns="http://www.w3.org/2000/svg" viewBox="0 0 22 22">
  <defs id="defs3051">
    <style type="text/css" id="current-color-scheme">
      .ColorScheme-Text {
        color:#dedede;
      }
      </style>
  </defs>
 <path 
    style="fill:currentColor;fill-opacity:1;stroke:none" 
	d="M 12.001953 3 L 4.6582031 10.3125 L 3.2519531 11.75 L 3.0019531 12 L 3.0019531 16 L 4.0019531 16 L 6.0019531 16 L 7.0019531 16 L 7.2519531 15.75 L 7.6269531 15.40625 L 8.3144531 14.6875 L 8.6894531 14.34375 L 15 8 L 16 7 L 12.001953 3 z M 11.408203 5 L 14 7.59375 L 9.7207031 11.84375 L 7.1582031 9.25 L 11.408203 5 z M 6.4394531 9.96875 L 9.0332031 12.5625 L 8.3144531 13.28125 L 5.7207031 10.6875 L 6.0019531 10.40625 L 6.4394531 9.96875 z M 5.0332031 11.375 L 7.6269531 13.96875 L 6.9082031 14.6875 L 4.3144531 12.09375 L 5.0332031 11.375 z M 16.498047 14 C 16.236387 14.0001 15.543567 14.046 14.435547 14.5625 C 14.089167 14.7241 13.80184 14.907 13.40625 15.125 C 13.19507 15.2414 12.43802 15.6193 12.15625 15.75 C 11.33058 16.1332 11.0562 16.2299 10.34375 16.5 C 9.65424 16.7615 8.9106 16.9987 8.40625 17.1875 C 6.28335 17.9823 3 18 3 18 L 3 19 C 3 19 6.32741 19.032 8.75 18.125 C 9.07135 18.0047 9.63148 17.8074 10.15625 17.625 C 10.96327 17.33064 11.83545 16.96826 12.5625 16.65625 C 12.86715 16.51485 13.573417 16.1652 13.873047 16 C 14.313257 15.7574 14.606857 15.57825 14.841797 15.46875 C 15.355167 15.16635 15.925197 14.9864 16.498047 15 C 16.453247 15.0002 16.671837 15.00105 16.873047 15.09375 C 17.074257 15.17775 17.297827 15.32735 17.466797 15.46875 C 17.794117 15.80065 17.931417 16.0539 17.998047 16.5 C 17.972347 17.182 17.737407 17.39575 17.248047 17.78125 C 16.924207 17.99579 16.46827 18.034846 16 18.003906 L 16 18.972656 C 16.78372 18.974656 17.411047 18.81831 17.779297 18.625 C 18.616007 18.1478 19.027267 17.28855 18.998047 16.46875 C 18.993047 16.18085 18.920827 15.9437 18.779297 15.625 C 18.637717 15.3064 18.435267 14.9489 18.123047 14.6875 C 17.641187 14.2643 17.399387 14.0781 16.498047 14 z "
    class="ColorScheme-Text"
    />  
</svg>

<?xml version="1.0" encoding="UTF-8"?>
<svg viewBox="0 0 22 22" xmlns="http://www.w3.org/2000/svg">
 <defs id="defs3051">
  <style id="current-color-scheme" type="text/css">.ColorScheme-Text {
        color:#dedede;
      }</style>
 </defs>
 <path class="ColorScheme-Text" d="m12.002 3-7.3437 7.3125-1.4062 1.4375-0.25 0.25v4h1 2 1l0.25-0.25 0.375-0.34375 0.6875-0.71875 0.375-0.34375 6.3105-6.3438 1-1-3.998-4zm-0.59375 2 2.5918 2.5938-4.2793 4.25-2.5625-2.5938 4.25-4.25zm-4.9687 4.9688 2.5938 2.5938-0.71875 0.71875-2.5938-2.5938 0.71875-0.71875zm-1.4062 1.4062 2.5938 2.5938-0.71875 0.71875-2.5938-2.5938 0.71875-0.71875zm11.465 2.625c-0.26166 1e-4 -0.95448 0.046-2.0625 0.5625-0.34638 0.1616-0.63371 0.3445-1.0293 0.5625-0.21118 0.1164-0.96823 0.4943-1.25 0.625-0.82567 0.3832-1.1 0.4799-1.8125 0.75-0.68951 0.2615-1.4332 0.4987-1.9375 0.6875-2.1229 0.7948-5.4062 0.8125-5.4062 0.8125v1s3.3274 0.032 5.75-0.875c0.32135-0.1203 0.88148-0.3176 1.4062-0.5 0.80702-0.29436 1.6792-0.65674 2.4062-0.96875 0.30465-0.1414 1.0109-0.49105 1.3105-0.65625 0.44021-0.2426 0.73381-0.42175 0.96875-0.53125 0.51337-0.3024 1.0834-0.48235 1.6562-0.46875-0.0448 2e-4 0.17379 0.00105 0.375 0.09375 0.20121 0.084 0.42478 0.2336 0.59375 0.375 0.32732 0.3319 0.46462 0.58515 0.53125 1.0312-0.0257 0.682-0.26064 0.89575-0.75 1.2812-0.32384 0.21454-0.77978 0.2536-1.248 0.22266v0.96875c0.78372 2e-3 1.411-0.15435 1.7793-0.34766 0.83671-0.4772 1.248-1.3364 1.2188-2.1562-5e-3 -0.2879-0.07722-0.52505-0.21875-0.84375-0.14158-0.3186-0.34403-0.6761-0.65625-0.9375-0.48186-0.4232-0.72366-0.6094-1.625-0.6875z" fill="currentColor"/>
</svg>
